X:1
T:Abide with Me
T:Abide with Me
T:Louis D. Eichhorn
T:Emma Graves Dietrich, 1902
T:Public Domain Courtesy of the Cyber Hymnal™
T:Public Domain Courtesy of the Cyber Hymnal™
C:Louis D. Eichhorn
Z:Public Domain
Z:Courtesy of the Cyber Hymnal™
%%score ( 1 2 ) ( 3 4 )
L:1/8
Q:1/4=85
M:4/4
K:A
V:1 treble 
V:2 treble 
V:3 bass 
V:4 bass 
V:1
 [CA][CG][CF] | [A,C]3 [CE] [DF][FA][=FB][FA] | [Ec]4- [Ec][Ec][Fd][Ec] | %3
w: 1.~A- bide with|me; I need Thee ev- ery|day, * To lead me|
w: 2.~Be with me,|Lord, wher- e’er my path may|lead; * Ful- fill Thy|
w: 3.~A- bide with|me, my Lord, and when at|last, * This earth and|
 [DF]3 [DA] [^Dc][DB][DB][DF] | [DG]4- [DG][CA][CG][CF] | [A,C]3 [CE] [DF][FA][=FB][FA] | %6
w: on thro’ all the wea- ry|way; * When storms sur-|round, and on- ly clouds I|
w: word, sup- ply my ev- ery|need; * Help me to|live each day more close to|
w: all its wea- ry cares are|past; * I’ll pray no|more that Thou a- bide with|
 [Ec]4- [Ec][Ee][=Ge][Fd] | [Ec][CE][CA][Ec] [DB]3 [CA] | [CA]4- [CA] ||"^Refrain" AGA | %10
w: see, * Lord, be my|com- fort, and a- bide with|me. *|A- bide with|
w: Thee, * And, oh, dear|Lord, I pray, a- bide with|me. *||
w: me, * For then, at|last, I shall a- bide with|Thee. *||
 (z [Fd])AB ^B x2 | z [Ec]EA c x2 | z [De]cA d x3 | z [GB]EA B x2 | z [=Gc]cd e x2 | %15
w: * me from morn|* till eve, For|* * with- out|* Thee I can-|* not live; A-|
w: |||||
w: |||||
 z [A,F]Ad f x2 | z [Ge][Ac][GB]>[EA] x2 | A4- [CA] |] %18
w: * bide with me|* when night is|* nigh,|
w: |||
w: |||
V:2
 x3 | x8 | x8 | x8 | x8 | x8 | x8 | x8 | x5 || x3 | d4- F F F | c4- E E E | e4- c A E x | %13
 B4- D E A | c4- E E A | F4- A, A, A, | e4 A G F | E C D E x |] %18
V:3
 [A,,E,][A,,E,][A,,A,] | [A,,E,]3 [A,,A,] [D,A,][D,A,][D,A,][D,A,] | %2
w: ~ ~ ~|~ ~ ~ ~ ~ ~|
 [A,,A,]4- [A,,A,][A,,A,][A,,A,][A,,A,] | [D,A,]3 [D,F,] [B,,F,][B,,A,][B,,F,][B,,B,] | %4
w: ~ * ~ ~ ~|~ ~ ~ ~ ~ ~|
 [E,B,]4- [E,B,][A,,E,][A,,E,][A,,A,] | [A,,E,]3 [A,,A,] [D,A,][D,A,][D,A,][D,A,] | %6
w: ~ * ~ ~ ~|~ ~ ~ ~ ~ ~|
 [A,,A,]4- [A,,A,][B,,G,][C,G,][D,A,] | [E,A,][E,A,][E,A,][E,A,] [E,G,]3 E, | [A,,E,]4- [A,,E,] || %9
w: ~ * ~ ~ ~|~ ~ ~ ~ ~ ~|~ *|
 A,G,A, | z [D,D]A,B, ^B, x2 | z [A,C]E,A, C x2 | z A,,C,E, [A,E]CA,D | z [E,B,]E,A, B, x2 | %14
w: ~ ~ ~|A- bide with me|~ ~ ~ from|morn till eve ~ ~ ~ For|out Thee ~ ~|
 z [A,C]CD E x2 | z [D,F,]A,D F x2 | z [E,B,E][E,E][E,D]>[A,,C] x2 | CE,F,A, [A,,E,] |] %18
w: I can- not live|~ ~ ~ A-|me ~ ~ ~|~ * * when is|
V:4
 x3 | x8 | x8 | x8 | x8 | x8 | x8 | x7 E, | x5 || x3 | D4- D,F,A, | C4- A,,C,E, | E4- x4 | %13
w: |||||||||||||
 B,4- E,G,B, | C4- A,,C,E, | F,4- D,D,D, | E4 CB,A, | A,,4- x |] %18
w: * * * ~|||||

